X:24
T:Oh Tell me When and tell me Where. WHG.024
T:?
R:jig
S:W.H.Giles MS,Bampton,Oxfordshire,1839p24
O:England
H:donated by Mrs W.R.Kettlewell to VWML,Apr 1927.
A:Bampton, Oxfordshire
N:In bars 2 & 6 MS, e3 was e2c, but dot added and c
N:scratched out. Bar 12 is a mess.
Z:PJHeadford – VMP 2009
M:6/8
L:1/8
Q:3/8=120
K:D
|:A|f2A f2A|f>gf e3|d2c d>ef|e2c B2A|
f2A f2A|f>gf e3|dcB cBA|f3-f2:|
|:A|ABc def|a2f e2d|cde ABc|d2g d2A|
ABc def|a2g e2d|cde ABc|d3-d2:|

